X:1
T:En, to og tri (reinl\"ander)
R:shottish, ringlender
Z:Sm\aaviltlaget, p\aa Skuddhold, Track 16
Z:Fel'klang #47, p.69
M:2/2
L:1/8
Q:1/2=75
K:D
|: "D"A2 f2 "D/A"(f>e) (f<g) \
| "A/E"(e>d) (e<f) "D"d3 f \
| "D"a2 a2 "D/A"a>^g a<b \
|1,3 "A/E"g>f g<a "D"f4 \
:|2,4 "A/E"g>f g<a "D"f3 f ||
|: "G"g2 (b<g) "A"e3 g \
| "D"(fe/f/) (a<f) "Bm"d3 f \
| "A/E"e>f g<e "A"c>A B<c \
|1,3 "D"d>e f<g "D/F#"a3 f \
:|2,4 "D"d2 "A"{e}(dc) "D"d3 f \
:|4 "D"d2 "A"{e}(dc) "D"d4 |]
